X: 1813
T: I Wont Be A Nun   #2
R: reel, march
%S: s:4 b:24(4+4+4+4)
B: O'Neill's 1850 #1813
O: F.O'Neill
Z: Bob Safranek, rjs@gsp.org
N: Compacted by using labels and play order [JC]
P: Play AD BD CD
M: C
L: 1/8
K: G
"^A"[|](G>A) | Bdg>a g2fe | dBB>c B2AG | Bdce dBGB | A2A>B "^->D"A2 ||
"^B"|| (fg)  | afd>f d2ga | bge>f e2ga | (Tbg) (Taf) (Tge) (Tfd) | (TBA)AB "^->D"A2 ||
"^C"|| (ab)  | c'baf gedc | B(G/B/) d(B/d/) g2(ab) | c'baf gedB | (TBA)AB "^->D"A2 ||
"^D"||  G>A  | Bdg>a g>a b/a/g/f/ | edB>c B2AG | Bdge dBAB | G2G>A G2 |]
